X: 44
T: Rolling Off a Log
B: NEFR #44
R: jig
Z: 2012 John Chambers <jc:trillian.mit.edu>
M: 6/8
L: 1/8
K: C
|: g2^f a2f | gec cBc | dBG GAB | cd^d ef^f \
|  g2^f a2f | gec cBc | dBG GAB | ced c3 :|
K: G
|: Bdg gfg | Bdg gfg | fga agf | age d2c \
|  Bdg gfg | Bdg gfg | fga agf |1 g3 d2c :|2 g3 ge=f :|


